frontend/src/assets/Cody_Portfolio.svg

<svg width="372" height="268" viewBox="0 0 372 268" fill="none" xmlns="http://www.w3.org/2000/svg">
<path d="M49.6007 206.6C29.6007 206.6 18.6007 198.2 18.6007 174.4V138.8C18.6007 130 15.6007 125.8 4.80073 125.4V112C15.0007 111.6 18.6007 107.4 18.6007 98.5999V63.7999C18.6007 39.9999 29.6007 32.1999 49.6007 32.1999H53.2007V45.3999H50.0007C39.6007 45.3999 35.4007 49.3999 35.4007 63.9999V99.7999C35.4007 110 32.0007 116 24.2007 118.4V119C32.0007 121.4 35.4007 127.4 35.4007 137.6V174.2C35.4007 188.8 39.6007 192.8 50.0007 192.8H53.2007V206.6H49.6007Z" fill="#FFFFF0"/>
<path d="M118.601 130.4C102.801 130.4 89.4007 118.2 89.4007 102.4C89.4007 86.5999 102.801 73.9999 118.601 73.9999C134.601 73.9999 147.801 86.5999 147.801 102.4C147.801 118.2 134.601 130.4 118.601 130.4ZM118.601 117.8C127.601 117.8 133.401 111 133.401 102.4C133.401 93.7999 127.601 86.5999 118.601 86.5999C109.601 86.5999 104.001 93.7999 104.001 102.4C104.001 111 109.601 117.8 118.601 117.8Z" fill="#FFFFF0"/>
<path d="M122.708 182.977C123.533 200.208 138.647 208.494 156.776 207.626C174.905 206.758 189.158 197.065 188.333 179.835C187.501 162.455 172.387 154.168 154.258 155.036C136.128 155.904 121.876 165.597 122.708 182.977ZM114.917 183.35C113.848 161.026 130.725 146.552 153.799 145.447C176.872 144.342 195.055 157.137 196.124 179.462C197.193 201.786 180.301 215.96 157.228 217.065C134.154 218.17 115.986 205.675 114.917 183.35Z" fill="#FFFFF0"/>
<path d="M221.321 130.89C205.521 130.89 192.121 118.69 192.121 102.89C192.121 87.0899 205.521 74.4899 221.321 74.4899C237.321 74.4899 250.521 87.0899 250.521 102.89C250.521 118.69 237.321 130.89 221.321 130.89ZM221.321 118.29C230.321 118.29 236.121 111.49 236.121 102.89C236.121 94.2899 230.321 87.0899 221.321 87.0899C212.321 87.0899 206.721 94.2899 206.721 102.89C206.721 111.49 212.321 118.29 221.321 118.29Z" fill="#FFFFF0"/>
<path d="M318 206.6V192.8H321.2C331.6 192.8 335.8 189.4 335.8 174.8V138.2C335.8 128 339.2 122 347 119.6V119C339.2 116.6 335.8 110.6 335.8 100.4V64.5999C335.8 49.9999 331.6 45.3999 321.2 45.3999H318V32.1999H321.6C341.6 32.1999 352.6 40.5999 352.6 64.3999V99.1999C352.6 108 355.6 112.2 366.4 112.6V126C356.2 126.4 352.6 130.6 352.6 139.4V175C352.6 198.8 341.6 206.6 321.6 206.6H318Z" fill="#FFFFF0"/>
</svg>

<svg xmlns="http://www.w3.org/2000/svg" width="372" height="268" fill="none"><path fill="ivory" d="M49.6 206.6c-20 0-31-8.4-31-32.2v-35.6c0-8.8-3-13-13.8-13.4V112c10.2-.4 13.8-4.6 13.8-13.4V63.8c0-23.8 11-31.6 31-31.6h3.6v13.2H50c-10.4 0-14.6 4-14.6 18.6v35.8c0 10.2-3.4 16.2-11.2 18.6v.6c7.8 2.4 11.2 8.4 11.2 18.6v36.6c0 14.6 4.2 18.6 14.6 18.6h3.2v13.8zM118.601 130.4c-15.8 0-29.2-12.2-29.2-28S102.8 74 118.6 74c16 0 29.2 12.6 29.2 28.4s-13.2 28-29.2 28m0-12.6c9 0 14.8-6.8 14.8-15.4s-5.8-15.8-14.8-15.8-14.6 7.2-14.6 15.8 5.6 15.4 14.6 15.4M122.708 182.977c.825 17.231 15.939 25.517 34.068 24.649s32.382-10.561 31.557-27.791c-.832-17.38-15.946-25.667-34.075-24.799s-32.382 10.561-31.55 27.941m-7.791.373c-1.069-22.324 15.808-36.798 38.882-37.903s41.256 11.69 42.325 34.015c1.069 22.324-15.823 36.498-38.896 37.603-23.074 1.105-41.242-11.39-42.311-33.715M221.321 130.89c-15.8 0-29.2-12.2-29.2-28s13.4-28.4 29.2-28.4c16 0 29.2 12.6 29.2 28.4s-13.2 28-29.2 28m0-12.6c9 0 14.8-6.8 14.8-15.4s-5.8-15.8-14.8-15.8-14.6 7.2-14.6 15.8 5.6 15.4 14.6 15.4M318 206.6v-13.8h3.2c10.4 0 14.6-3.4 14.6-18v-36.6c0-10.2 3.4-16.2 11.2-18.6v-.6c-7.8-2.4-11.2-8.4-11.2-18.6V64.6c0-14.6-4.2-19.2-14.6-19.2H318V32.2h3.6c20 0 31 8.4 31 32.2v34.8c0 8.8 3 13 13.8 13.4V126c-10.2.4-13.8 4.6-13.8 13.4V175c0 23.8-11 31.6-31 31.6z"/></svg>
